Papirus-nordic/32x32/places/folder-red-pcloud.svg

<svg xmlns="http://www.w3.org/2000/svg" width="32" height="32" version="1">
 <rect style="opacity:0.2" width="25" height="16" x="3" y="12" rx="1.25" ry="1.25"/>
 <path style="fill:#ae4f58" d="M 3,21.75 C 3,22.442 3.5575,23 4.25,23 H 26.75 C 27.442,23 28,22.442 28,21.75 V 8.25 C 28,7.5575 27.442,7 26.75,7 H 14 V 6.25 C 14,5.5575 13.443,5 12.75,5 H 4.25 C 3.5575,5 3,5.5575 3,6.25"/>
 <rect style="opacity:0.2" width="25" height="16" x="3" y="10" rx="1.25" ry="1.25"/>
 <rect style="fill:#e4e4e4" width="21" height="10" x="5" y="9" rx="1.25" ry="1.25"/>
 <rect style="fill:#bf616a" width="25" height="16" x="3" y="11" rx="1.25" ry="1.25"/>
 <path style="opacity:0.1;fill:#ffffff" d="M 4.25 5 C 3.5575 5 3 5.5575 3 6.25 L 3 7.25 C 3 6.5575 3.5575 6 4.25 6 L 12.75 6 C 13.443 6 14 6.5575 14 7.25 L 14 8 L 26.75 8 C 27.442 8 28 8.5575 28 9.25 L 28 8.25 C 28 7.5575 27.442 7 26.75 7 L 14 7 L 14 6.25 C 14 5.5575 13.443 5 12.75 5 L 4.25 5 z"/>
 <path style="fill:#974a4d" d="M 16,13 A 5,5 0 0 0 11.396484,16.048828 4,4 0 0 0 8,20 4,4 0 0 0 11.808594,23.990234 V 24 h 9.714844 A 2.4761905,2.4761905 0 0 0 24,21.523438 2.4761905,2.4761905 0 0 0 22.822266,19.417969 2.5,2.5 0 0 0 23,18.5 2.5,2.5 0 0 0 20.578125,16.003906 5,5 0 0 0 16,13 Z m -2,3 h 1 3 v 3 h -3 v 2 h -1 v -2 z m 1,1 v 1 h 2 v -1 z"/>
</svg>

<svg xmlns="http://www.w3.org/2000/svg" width="32" height="32" version="1"><rect width="25" height="16" x="3" y="12" rx="1.25" ry="1.25" opacity=".2"/><path d="M3 21.75c0 .692.558 1.25 1.25 1.25h22.5c.692 0 1.25-.558 1.25-1.25V8.25C28 7.558 27.442 7 26.75 7H14v-.75C14 5.558 13.443 5 12.75 5h-8.5C3.558 5 3 5.558 3 6.25" fill="#ae4f58"/><rect width="25" height="16" x="3" y="10" rx="1.25" ry="1.25" opacity=".2"/><rect width="21" height="10" x="5" y="9" rx="1.25" ry="1.25" fill="#e4e4e4"/><rect width="25" height="16" x="3" y="11" rx="1.25" ry="1.25" fill="#bf616a"/><path d="M4.25 5C3.558 5 3 5.558 3 6.25v1C3 6.558 3.558 6 4.25 6h8.5c.693 0 1.25.558 1.25 1.25V8h12.75c.692 0 1.25.557 1.25 1.25v-1C28 7.558 27.442 7 26.75 7H14v-.75C14 5.558 13.443 5 12.75 5h-8.5z" opacity=".1" fill="#fff"/><path d="M16 13a5 5 0 0 0-4.604 3.049A4 4 0 0 0 8 20a4 4 0 0 0 3.809 3.99V24h9.714A2.476 2.476 0 0 0 24 21.523a2.476 2.476 0 0 0-1.178-2.105A2.5 2.5 0 0 0 23 18.5a2.5 2.5 0 0 0-2.422-2.496A5 5 0 0 0 16 13zm-2 3h4v3h-3v2h-1v-2zm1 1v1h2v-1z" fill="#974a4d"/></svg>
